X: 27206
T: Miss Ramsey
R: reel
M: 4/4
K: Gmajor
|:~G3e dB~B2|dBeB dBAB|~G3e dB~B2|1 gedB AGAB:|2 gedB A2A2||
|:bg~g2 aged|eaag fd~d2|bgaf gfef|1 gedB A2A2:|2 gedB AGAF||
~G3B dB~B2|dBeB dBAB|~G3B dB~B2|1 gedB AcBA:|2 gedB ABdg||
|:bg~g2 aged|eaag fddg|bgag gede|1 gedB ABdg:|2 gedB AcBA||

